!! Isochronous pitch passage.
!! Bass-line.
!! From Fitzwilliam Virginal Book Vol. 1, No. 102, William Byrd, Ut mi re, Variation 12
!! measure 6ff.
!! Passage contains 82 notes.
!! 6/4 meter
**kern	**metpos
*M6/4	*M6/4
*tb8	*tb8
=1	=1
8r	1
8r	4
8D	3
8C	4
8BB	3
8AA	4
8GG	2
8AA	4
8BB	3
8C	4
8D	3
8C	4
=2	=2
8D	1
8E	4
8F	3
8G	4
8A	3
8G	4
8A	2
8AA	4
8C	3
8D	4
8E	3
8D	4
=3	=3
8E	1
8F#	4
8G	3
8F#	4
8G	3
8GG	4
8BB	2
8C	4
8D	3
8C	4
8D	3
8BB	4
=4	=4
8AA	1
8A	4
8G	3
8F	4
8E	3
8D	4
8C	2
8BB	4
8AA	3
8BB	4
8C	3
8D	4
=5	=5
8E	1
8F	4
8G	3
8A	4
8B	3
8G	4
8A	2
8B	4
8c	3
8d	4
8e	3
8E	4
=6	=6
8F	1
8G	4
8A	3
8B	4
8c	3
8A	4
8B	2
8c	4
8d	3
8D	4
8E	3
8F#	4
=7	=7
8G	1
8GG	4
8AA	3
8BB	4
8C	3
8D	4
8C	2
8D	4
8E	3
8C	4
8Fn	3
8FF	4
=8	=8
8AA	1
8BB	4
8C	3
8AA	4
8D	3
8DD	4
8GG	2
8AA	4
8BB	3
8GG	4
8G	3
8F	4
=9	=9
8E	1
8D	4
8C	3
8G	4
8c	3
8B	4
8A	2
8G	4
8F#	3
8D	4
8d	3
8c	4
=10	=10
8B	1
8A	4
8G	3
8E	4
8G	3
8F	4
8E	2
8D	4
8C	3
8D	4
8E	3
8F	4
=11	=11
*-	*-
